packages/assets/static/images/icons/bold/dna--bold.svg

<svg width="24" height="24" viewBox="0 0 24 24" xmlns="http://www.w3.org/2000/svg">
<path d="M18.7085 19.1719V21.75C18.7085 22.0484 18.59 22.3345 18.379 22.5455C18.168 22.7565 17.8818 22.875 17.5835 22.875C17.2851 22.875 16.999 22.7565 16.788 22.5455C16.577 22.3345 16.4585 22.0484 16.4585 21.75V19.1719C16.462 18.1264 16.1725 17.1009 15.6229 16.2116C15.0733 15.3222 14.2855 14.6047 13.3488 14.1403L8.81129 11.8716C7.50014 11.2215 6.39736 10.217 5.628 8.97209C4.85865 7.72717 4.45349 6.29159 4.45848 4.82812V2.25C4.45848 1.95163 4.57701 1.66548 4.78799 1.4545C4.99896 1.24353 5.28511 1.125 5.58348 1.125C5.88185 1.125 6.168 1.24353 6.37898 1.4545C6.58995 1.66548 6.70848 1.95163 6.70848 2.25V4.82812C6.70496 5.87358 6.99443 6.89911 7.54406 7.78844C8.0937 8.67776 8.88151 9.3953 9.81817 9.85969L14.3557 12.1284C15.6668 12.7785 16.7696 13.783 17.539 15.0279C18.3083 16.2728 18.7135 17.7084 18.7085 19.1719ZM13.8335 19.125H6.70848C6.7133 18.6174 6.7871 18.1127 6.92786 17.625H12.1966C12.495 17.625 12.7811 17.5065 12.9921 17.2955C13.2031 17.0845 13.3216 16.7984 13.3216 16.5C13.3216 16.2016 13.2031 15.9155 12.9921 15.7045C12.7811 15.4935 12.495 15.375 12.1966 15.375H8.18598C8.27973 15.2719 8.37348 15.1706 8.47942 15.0741C8.69673 14.8696 8.8239 14.5871 8.83296 14.2888C8.84201 13.9906 8.73221 13.7009 8.5277 13.4836C8.32319 13.2663 8.04074 13.1391 7.74246 13.1301C7.44419 13.121 7.15454 13.2308 6.93723 13.4353C6.15615 14.1731 5.53355 15.0622 5.10738 16.0485C4.68122 17.0347 4.46043 18.0975 4.45848 19.1719V21.75C4.45848 22.0484 4.57701 22.3345 4.78799 22.5455C4.99896 22.7565 5.28511 22.875 5.58348 22.875C5.88185 22.875 6.168 22.7565 6.37898 22.5455C6.58995 22.3345 6.70848 22.0484 6.70848 21.75V21.375H13.8335C14.1318 21.375 14.418 21.2565 14.629 21.0455C14.84 20.8345 14.9585 20.5484 14.9585 20.25C14.9585 19.9516 14.84 19.6655 14.629 19.4545C14.418 19.2435 14.1318 19.125 13.8335 19.125ZM17.5835 1.125C17.2851 1.125 16.999 1.24353 16.788 1.4545C16.577 1.66548 16.4585 1.95163 16.4585 2.25V2.625H9.33348C9.03511 2.625 8.74896 2.74353 8.53799 2.9545C8.32701 3.16548 8.20848 3.45163 8.20848 3.75C8.20848 4.04837 8.32701 4.33452 8.53799 4.5455C8.74896 4.75647 9.03511 4.875 9.33348 4.875H16.4585C16.4537 5.38263 16.3799 5.88725 16.2391 6.375H10.9685C10.6701 6.375 10.384 6.49353 10.173 6.7045C9.96201 6.91548 9.84348 7.20163 9.84348 7.5C9.84348 7.79837 9.96201 8.08452 10.173 8.2955C10.384 8.50647 10.6701 8.625 10.9685 8.625H14.981C14.8872 8.72813 14.7935 8.82937 14.6875 8.92594C14.4702 9.13044 14.3431 9.4129 14.334 9.71117C14.325 10.0094 14.4348 10.2991 14.6393 10.5164C14.8438 10.7337 15.1262 10.8609 15.4245 10.8699C15.7228 10.879 16.0124 10.7692 16.2297 10.5647C17.0108 9.82694 17.6334 8.93782 18.0596 7.95155C18.4857 6.96528 18.7065 5.90253 18.7085 4.82812V2.25C18.7085 1.95163 18.59 1.66548 18.379 1.4545C18.168 1.24353 17.8818 1.125 17.5835 1.125Z"/>
</svg>

<svg viewBox="0 0 24 24" xmlns="http://www.w3.org/2000/svg" aria-hidden="true" fill="currentColor"><path d="M18.709 19.172v2.578a1.125 1.125 0 1 1-2.25 0v-2.578a5.6 5.6 0 0 0-3.11-5.032L8.81 11.872a7.83 7.83 0 0 1-4.353-7.044V2.25a1.125 1.125 0 0 1 2.25 0v2.578a5.6 5.6 0 0 0 3.11 5.032l4.538 2.268a7.83 7.83 0 0 1 4.353 7.044m-4.875-.047H6.708a5.6 5.6 0 0 1 .22-1.5h5.269a1.125 1.125 0 1 0 0-2.25H8.186c.094-.103.187-.204.293-.3a1.125 1.125 0 0 0-1.542-1.64 7.9 7.9 0 0 0-2.479 5.737v2.578a1.125 1.125 0 1 0 2.25 0v-.375h7.126a1.125 1.125 0 0 0 0-2.25m3.75-18a1.125 1.125 0 0 0-1.125 1.125v.375H9.333a1.125 1.125 0 0 0 0 2.25h7.126a5.6 5.6 0 0 1-.22 1.5h-5.27a1.125 1.125 0 0 0 0 2.25h4.012a4 4 0 0 1-.293.3 1.125 1.125 0 0 0 1.542 1.64 7.9 7.9 0 0 0 2.479-5.737V2.25a1.125 1.125 0 0 0-1.125-1.125"/></svg>
